X:1
T:CHANSON FRAN9AISE
T:CHANSON ITALIENNE
T:CHANT POPULAIRE 
T:MAURICE RAVEL
T:Harmonisation de
T:ROMAINE
C:MAURICE RAVEL
%%score 1 { ( 2 4 ) | ( 3 5 6 ) }
L:1/8
Q:1/4=50
M:2/4
K:Eb
V:1 treble nm="CHANT"
V:2 treble nm="PIANO"
V:4 treble 
V:3 bass 
V:5 bass 
V:6 bass 
V:1
"_Largamente""^Largamente""^(quasi a piacere, portando le note)" z4 | z2 z!mf! G | %2
w: |Pen-|
w: |M'af-|
 c3/2 c/ d3/2 d/ |{/f} (e/d/) c3- | c c =B3/2 G/ | c{/c} G3- | G2 z G | c3/2 c/ d3/2 d/ | %8
w: chée à ma fe-|nê- * tre,|_ j'é- cou- te|l'on- de,|_ J'é-|cou- te ma mi-|
w: fac- cio la fi-|nes- * tra|_ e ve- do|l'on- de,|_ Ve-|do le mi mi-|
{/f} (e/d/) c3- | c2 =B3/2 G/ | c{/c} G3- | G2 z!p! G | c3/2 c/ G3/2 G/ |{FG} F!<(! E3- | %14
w: sè- * re|_ si pro-|fon- de!|_ Je|cla- me mon a-|mour, _|
w: se- * rie|_ che so|gran- ne.|_ Chia-|mo l'a- mo- re|mio, _|
 E!<)!!>(! E F G | D2 C2- | C2!>)! !fermata!z!f! G | c3/2 c/ G3/2 G/ |!>(!{FG} F2!>)!!<(! E2- | %19
w: _ nul qui ré-|pon- de|_ Je|cla- me mon a-|mour, _|
w: _ nun- m'ar- ris-|pon- de|_ Chi-|mo l'a- mo- re|mio, _|
 E!<)!!>(! E F G | D2 C2-!>)! | !fermata!C4 |] %22
w: _ nul qui ré-|pon- de!|_|
w: _ nun m'ar- ris-|pon- de.|_|
V:2
"^(quasi a piacere, portando le note)" [G,EG]4- | [G,EG]4 |!mf!!>(! (e/4d/4c3/2 =B2 | %3
 (([EG]4)!>)! | z4)) |!p!!>(! (!>!e'/4d'/4c'3/2 =b2!>)! | [eg]4) |!mf!!>(! (!>!e/4d/4c3/2 =B2 | %8
 (([EG]4)!>)! | z4)) |!p!!>(! (!>!e'/4d'/4c'3/2 =b2 | [eg]4)!>)! | %12
!p!!>(! (!>![ce]/4[Bd]/4[Ac]3/2 [G=B]2!>)! | (F)!<(! E2) !>!E- | E!<)!!>(! (!arpeggio!!>!E2 D | %15
 D2!>)! C2-) | !fermata![E,G,C]2!<(![I:staff +1] (E,/4G,/4C/4E/4[I:staff -1]G/4c/4e/4g/4)!<)! | %17
!f!!>(! (!>![c'e']/4[bd']/4[c'e']3/2 [g=b]2!>)! |!<(! !>!f2-) f!>!f- | f!<)!!>(! !>!f2 d | %20
 d2 c2!>)! |!pp! [cgc']4 |] %22
V:3
 z2 G,,2- | G,,2 G,,2 | (!>!E/4D/4C3/2 =B,2 | B,4) |!<(! G,,3!<)! G,, | %5
[K:treble] (!>!e/4d/4c3/2 =B2 | G4)[K:bass] | (!>!E/4D/4C3/2 =B,2 | G,4) |!<(! G,,3!<)! G,, | %10
[K:treble] (!>!e/4d/4c3/2 =B2 | G4)[K:bass] | !>!E/4D/4C3/2 =B,2 | (E,,7/2 F,,/ | G,,4) | C,,4- | %16
 C,,4 |[K:treble] ([ce]/4[Bd]/4[Ac]3/2 [G=B]2 |[K:bass] G4) | E (E2 D | D2 C2) | %21
[K:treble] [EGe]4 |] %22
V:4
 x4 | x4 | G4 | x4 | x4 | !>!g4 | x4 | G4 | x4 | x4 | !>!g4 | x4 | x4 | [_B,G_B]4 | %14
 z !arpeggio![F,=B,]2 x | [E,G,]4- | z4 | x4 | [_Bg_b]4 | z [F=B]3 | [EG]4 | x4 |] %22
V:5
 x4 | x4 |{/C,,-} C,,4 | z2 G,,2- | x4 |[K:treble]{/A,-} A,4 | z2[K:bass] G,2 |{/C,,-} C,,4 | %8
 z2 G,,2- | x4 |[K:treble]{/A,-} A,4 | z2[K:bass] G,2 |{/A,,-} A,,4 | x4 | x4 | x4 | x4 | %17
[K:treble]{/[F,F]-} [F,F]4 |[K:bass] (!>!F2 E)!>!E | x [F,=B,]3 |{/C,,-} [C,,E,G,]4 | %21
[K:treble]{/A,-} A,4 |] %22
V:6
 x4 | x4 | x4 | x4 | x4 |[K:treble] x4 | x2[K:bass] x2 | x4 | x4 | x4 |[K:treble] x4 | %11
 x2[K:bass] x2 | x4 | x4 | x4 | x4 | x4 |[K:treble] x4 |[K:bass]{/E,,} (E,,7/2 F,,/ | G,,4) | x4 | %21
[K:treble] x4 |] %22

